svg/emoji_u1f3e6.svg

<?xml version="1.0" encoding="UTF-8"?>
<svg width="128" height="128" enable-background="new 0 0 128 128" xmlns="http://www.w3.org/2000/svg"><radialGradient id="i" cx="63" cy="43.5" r="77.661" gradientTransform="matrix(.8571 0 0 1 9.1429 0)" gradientUnits="userSpaceOnUse"><stop stop-color="#757575" offset="0"/><stop stop-color="#707070" offset=".2609"/><stop stop-color="#616161" offset=".5781"/><stop stop-color="#484848" offset=".9234"/><stop stop-color="#424242" offset="1"/></radialGradient><rect x="16" y="32" width="96" height="88" fill="url(#i)"/><rect x="16" y="48" width="20" height="60" fill="#BDBDBD"/><linearGradient id="h" x1="26" x2="26" y1="51.667" y2="61.263" gradientUnits="userSpaceOnUse"><stop stop-color="#757575" offset="0"/><stop stop-color="#757575" stop-opacity="0" offset="1"/></linearGradient><rect x="16" y="48" width="20" height="20" fill="url(#h)"/><linearGradient id="g" x1="322" x2="322" y1="63.667" y2="76.184" gradientTransform="matrix(-1 0 0 -1 348 164)" gradientUnits="userSpaceOnUse"><stop stop-color="#757575" offset="0"/><stop stop-color="#757575" stop-opacity="0" offset="1"/></linearGradient><polygon points="16 84 36 84 36 104 16 104" fill="url(#g)"/><g opacity=".2"><polygon points="24.67 48 21.67 48 21.67 104 24.67 104" fill="#424242"/></g><g opacity=".2"><polygon points="30.33 48 27.33 48 27.33 108.75 30.33 108.75" fill="#424242"/></g><g opacity=".2"><polygon points="19 48 16 48 16 104 19 104" fill="#424242"/></g><g opacity=".2"><polygon points="36 48 33 48 33 104 36 104" fill="#424242"/></g><linearGradient id="f" x1="26" x2="26" y1="48.167" y2="38.832" gradientUnits="userSpaceOnUse"><stop stop-color="#BDBDBD" offset="0"/><stop stop-color="#A2A2A2" offset=".4136"/><stop stop-color="#757575" offset=".9957"/></linearGradient><path d="m12 40v5c0 3.87 3.13 7 7 7h14c3.87 0 7-3.13 7-7v-5h-28z" fill="url(#f)"/><g opacity=".2"><path d="m37 43v2c0 2.21-1.79 4-4 4h-14c-2.21 0-4-1.79-4-4v-2h22m3-3h-28v5c0 3.87 3.13 7 7 7h14c3.87 0 7-3.13 7-7v-5z" fill="#424242"/></g><linearGradient id="e" x1="398" x2="398" y1="101.33" y2="93.325" gradientTransform="matrix(-1 0 0 -1 424 204)" gradientUnits="userSpaceOnUse"><stop stop-color="#BDBDBD" offset="0"/><stop stop-color="#A2A2A2" offset=".4136"/><stop stop-color="#757575" offset=".9957"/></linearGradient><path d="m40 112v-5c0-3.87-3.13-7-7-7h-14c-3.87 0-7 3.13-7 7v5h28z" fill="url(#e)"/><g opacity=".2"><path d="m33 103c2.21 0 4 1.79 4 4v2h-22v-2c0-2.21 1.79-4 4-4h14m0-3h-14c-3.87 0-7 3.13-7 7v5h28v-5c0-3.87-3.13-7-7-7z" fill="#424242"/></g><rect x="92" y="48" width="20" height="60" fill="#BDBDBD"/><linearGradient id="d" x1="102" x2="102" y1="51.667" y2="61.263" gradientUnits="userSpaceOnUse"><stop stop-color="#757575" offset="0"/><stop stop-color="#757575" stop-opacity="0" offset="1"/></linearGradient><rect x="92" y="48" width="20" height="20" fill="url(#d)"/><linearGradient id="c" x1="246" x2="246" y1="63.667" y2="76.184" gradientTransform="matrix(-1 0 0 -1 348 164)" gradientUnits="userSpaceOnUse"><stop stop-color="#757575" offset="0"/><stop stop-color="#757575" stop-opacity="0" offset="1"/></linearGradient><polygon points="92 84 112 84 112 104 92 104" fill="url(#c)"/><g opacity=".2"><polygon points="100.67 48 97.67 48 97.67 104 100.67 104" fill="#424242"/></g><g opacity=".2"><polygon points="106.33 48 103.33 48 103.33 108.75 106.33 108.75" fill="#424242"/></g><g opacity=".2"><polygon points="95 48 92 48 92 104 95 104" fill="#424242"/></g><g opacity=".2"><polygon points="112 48 109 48 109 104 112 104" fill="#424242"/></g><linearGradient id="b" x1="102" x2="102" y1="48.167" y2="38.832" gradientUnits="userSpaceOnUse"><stop stop-color="#BDBDBD" offset="0"/><stop stop-color="#A2A2A2" offset=".4136"/><stop stop-color="#757575" offset=".9957"/></linearGradient><path d="m88 40v5c0 3.87 3.13 7 7 7h14c3.87 0 7-3.13 7-7v-5h-28z" fill="url(#b)"/><g opacity=".2"><path d="m113 43v2c0 2.21-1.79 4-4 4h-14c-2.21 0-4-1.79-4-4v-2h22m3-3h-28v5c0 3.87 3.13 7 7 7h14c3.87 0 7-3.13 7-7v-5z" fill="#424242"/></g><linearGradient id="a" x1="322" x2="322" y1="101.33" y2="93.325" gradientTransform="matrix(-1 0 0 -1 424 204)" gradientUnits="userSpaceOnUse"><stop stop-color="#BDBDBD" offset="0"/><stop stop-color="#A2A2A2" offset=".4136"/><stop stop-color="#757575" offset=".9957"/></linearGradient><path d="m116 112v-5c0-3.87-3.13-7-7-7h-14c-3.87 0-7 3.13-7 7v5h28z" fill="url(#a)"/><g opacity=".2"><path d="m109 103c2.21 0 4 1.79 4 4v2h-22v-2c0-2.21 1.79-4 4-4h14m0-3h-14c-3.87 0-7 3.13-7 7v5h28v-5c0-3.87-3.13-7-7-7z" fill="#424242"/></g><radialGradient id="m" cx="63.667" cy="7.3333" r="53.207" gradientTransform="matrix(-.00075875 1 -1.4754 -.0011194 74.534 -56.325)" gradientUnits="userSpaceOnUse"><stop stop-color="#E0E0E0" offset="0"/><stop stop-color="#DEDEDE" offset=".3844"/><stop stop-color="#D6D6D6" offset=".5865"/><stop stop-color="#C8C8C8" offset=".746"/><stop stop-color="#B5B5B5" offset=".8826"/><stop stop-color="#9E9E9E" offset="1"/></radialGradient><path d="M56.42,5.79L6.21,30.89C4.86,31.57,4,32.96,4,34.47V40c0,2.21,1.79,4,4,4h112 c2.21,0,4-1.79,4-4v-5.53c0-1.52-0.86-2.9-2.21-3.58L71.58,5.79C69.22,4.61,66.63,4,64,4h0C61.37,4,58.78,4.61,56.42,5.79z" fill="url(#m)"/><radialGradient id="l" cx="63.879" cy="14.5" r="37.764" gradientTransform="matrix(4.4999e-11 1 -1.8893 8.5018e-11 91.274 -49.379)" gradientUnits="userSpaceOnUse"><stop stop-color="#E0E0E0" offset="0"/><stop stop-color="#C5C5C5" offset=".4495"/><stop stop-color="#9E9E9E" offset="1"/></radialGradient><path d="m106.53 32.21-38.53-19.27c-1.24-0.62-2.61-0.94-4-0.94s-2.76 0.32-4 0.94l-38.53 19.27c-1.89 0.94-1.22 3.79 0.89 3.79h83.28c2.11 0 2.78-2.85 0.89-3.79z" fill="url(#l)" stroke="#AFAFAF" stroke-miterlimit="10" stroke-width="2"/><g opacity=".2"><path d="M64,7c2.15,0,4.31,0.51,6.24,1.47l50.21,25.11c0.34,0.17,0.55,0.51,0.55,0.89V40c0,0.55-0.45,1-1,1 H8c-0.55,0-1-0.45-1-1v-5.53c0-0.38,0.21-0.72,0.55-0.89L57.76,8.47C59.69,7.51,61.85,7,64,7 M64,4c-2.63,0-5.22,0.61-7.58,1.79 L6.21,30.89C4.86,31.57,4,32.96,4,34.47V40c0,2.21,1.79,4,4,4h112c2.21,0,4-1.79,4-4v-5.53c0-1.52-0.86-2.9-2.21-3.58L71.58,5.79 C69.22,4.61,66.63,4,64,4L64,4z" fill="#424242"/></g><linearGradient id="k" x1="64" x2="64" y1="108.5" y2="117.85" gradientUnits="userSpaceOnUse"><stop stop-color="#E0E0E0" offset="0"/><stop stop-color="#C5C5C5" offset=".4495"/><stop stop-color="#9E9E9E" offset="1"/></linearGradient><path d="M120,120H8v-8c0-2.21,1.79-4,4-4h104c2.21,0,4,1.79,4,4V120z" fill="url(#k)"/><linearGradient id="j" x1="64" x2="64" y1="115.67" y2="122.34" gradientUnits="userSpaceOnUse"><stop stop-color="#E0E0E0" offset="0"/><stop stop-color="#C5C5C5" offset=".4495"/><stop stop-color="#9E9E9E" offset="1"/></linearGradient><path d="M124,124H4v-4c0-2.21,1.79-4,4-4h112c2.21,0,4,1.79,4,4V124z" fill="url(#j)"/><g opacity=".2"><path d="m116 111c0.55 0 1 0.45 1 1v7h3c0.55 0 1 0.45 1 1v1h-114v-1c0-0.55 0.45-1 1-1h3v-7c0-0.55 0.45-1 1-1h104m0-3h-104c-2.21 0-4 1.79-4 4v4c-2.21 0-4 1.79-4 4v4h120v-4c0-2.21-1.79-4-4-4v-4c0-2.21-1.79-4-4-4z" fill="#424242"/></g><path d="m55.11 88h17.78c0.61 0 1.11-0.45 1.11-1v-0.54c0-0.65-0.45-1.22-1.12-1.45l-8.66-1.88c-0.25-0.08-0.53-0.08-0.78 0l-8.34 1.87c-0.66 0.23-1.1 0.8-1.1 1.44v0.56c0 0.55 0.5 1 1.11 1z" fill="#757575"/><rect x="56" y="88" width="16" height="20" fill="#4FC3F7"/><g fill="#424242" opacity=".2"><rect x="56" y="88" width="2" height="20"/><rect x="70" y="88" width="2" height="20"/></g><g fill="#BDBDBD"><path d="m38.58 71.42v-14.35h5.03c1.74 0 3.06 0.33 3.96 1s1.35 1.64 1.35 2.93c0 0.7-0.18 1.32-0.54 1.86s-0.86 0.93-1.51 1.18c0.74 0.18 1.32 0.56 1.74 1.11 0.42 0.56 0.64 1.24 0.64 2.05 0 1.38-0.44 2.42-1.32 3.13s-2.14 1.07-3.76 1.08h-5.59zm2.95-8.34h2.19c1.49-0.03 2.24-0.62 2.24-1.78 0-0.65-0.19-1.12-0.57-1.4-0.38-0.29-0.97-0.43-1.79-0.43h-2.07v3.61zm0 2.09v3.87h2.53c0.7 0 1.24-0.17 1.63-0.5s0.59-0.79 0.59-1.38c0-1.31-0.68-1.98-2.04-2h-2.71z"/><path d="m59.28 68.46h-5.18l-0.99 2.96h-3.14l5.34-14.35h2.74l5.37 14.35h-3.14l-1-2.96zm-4.39-2.39h3.59l-1.8-5.37-1.79 5.37z"/><path d="M76.42,71.42h-2.96l-5.75-9.44v9.44h-2.96V57.07h2.96l5.76,9.46v-9.46h2.95V71.42z"/><path d="m83.5 65.66-1.54 1.65v4.1h-2.96v-14.34h2.96v6.5l1.3-1.78 3.66-4.72h3.64l-5.09 6.38 5.24 7.97h-3.52l-3.69-5.76z"/></g></svg>

<svg width="128" height="128" style="enable-background:new 0 0 128 128;" xmlns="http://www.w3.org/2000/svg" xmlns:xlink="http://www.w3.org/1999/xlink">
  <radialGradient id="SVGID_1_" cx="63" cy="43.5" gradientTransform="matrix(0.8571 0 0 1 9.1429 0)" gradientUnits="userSpaceOnUse" r="77.6611">
    <stop offset="0" style="stop-color:#757575"/>
    <stop offset="0.2609" style="stop-color:#707070"/>
    <stop offset="0.5781" style="stop-color:#616161"/>
    <stop offset="0.9234" style="stop-color:#484848"/>
    <stop offset="1" style="stop-color:#424242"/>
  </radialGradient>
  <rect height="88" style="fill:url(#SVGID_1_);" width="96" x="16" y="32"/>
  <rect height="60" style="fill:#BDBDBD;" width="20" x="16" y="48"/>
  <g>
    <linearGradient id="SVGID_2_" gradientUnits="userSpaceOnUse" x1="26" x2="26" y1="51.6667" y2="61.263">
      <stop offset="0" style="stop-color:#757575"/>
      <stop offset="1" style="stop-color:#757575;stop-opacity:0"/>
    </linearGradient>
    <rect height="20" style="fill:url(#SVGID_2_);" width="20" x="16" y="48"/>
    <linearGradient id="SVGID_3_" gradientTransform="matrix(-1 0 0 -1 348 164)" gradientUnits="userSpaceOnUse" x1="322" x2="322" y1="63.6667" y2="76.1844">
      <stop offset="0" style="stop-color:#757575"/>
      <stop offset="1" style="stop-color:#757575;stop-opacity:0"/>
    </linearGradient>
    <polygon points="16,84 36,84 36,104 16,104 " style="fill:url(#SVGID_3_);"/>
  </g>
  <g style="opacity:0.2;">
    <polygon points="24.67,48 21.67,48 21.67,104 24.67,104 24.67,48 " style="fill:#424242;"/>
  </g>
  <g style="opacity:0.2;">
    <polygon points="30.33,48 27.33,48 27.33,108.75 30.33,108.75 30.33,48 " style="fill:#424242;"/>
  </g>
  <g style="opacity:0.2;">
    <polygon points="19,48 16,48 16,104 19,104 19,48 " style="fill:#424242;"/>
  </g>
  <g style="opacity:0.2;">
    <polygon points="36,48 33,48 33,104 36,104 36,48 " style="fill:#424242;"/>
  </g>
  <g>
    <linearGradient id="SVGID_4_" gradientUnits="userSpaceOnUse" x1="26" x2="26" y1="48.1667" y2="38.8318">
      <stop offset="0" style="stop-color:#BDBDBD"/>
      <stop offset="0.4136" style="stop-color:#A2A2A2"/>
      <stop offset="0.9957" style="stop-color:#757575"/>
    </linearGradient>
    <path d="M12,40v4v1c0,3.87,3.13,7,7,7h14c3.87,0,7-3.13,7-7v-1v-4H12z" style="fill:url(#SVGID_4_);"/>
    <g style="opacity:0.2;">
      <path d="M37,43v1v1c0,2.21-1.79,4-4,4H19c-2.21,0-4-1.79-4-4v-1v-1H37 M40,40H12v4v1c0,3.87,3.13,7,7,7h14 c3.87,0,7-3.13,7-7v-1V40L40,40z" style="fill:#424242;"/>
    </g>
  </g>
  <g>
    <linearGradient id="SVGID_5_" gradientTransform="matrix(-1 0 0 -1 424 204)" gradientUnits="userSpaceOnUse" x1="398" x2="398" y1="101.3333" y2="93.3247">
      <stop offset="0" style="stop-color:#BDBDBD"/>
      <stop offset="0.4136" style="stop-color:#A2A2A2"/>
      <stop offset="0.9957" style="stop-color:#757575"/>
    </linearGradient>
    <path d="M40,112v-4v-1c0-3.87-3.13-7-7-7H19c-3.87,0-7,3.13-7,7v1v4H40z" style="fill:url(#SVGID_5_);"/>
    <g style="opacity:0.2;">
      <path d="M33,103c2.21,0,4,1.79,4,4v1v1H15v-1v-1c0-2.21,1.79-4,4-4H33 M33,100H19c-3.87,0-7,3.13-7,7v1v4 h28v-4v-1C40,103.13,36.87,100,33,100L33,100z" style="fill:#424242;"/>
    </g>
  </g>
  <rect height="60" style="fill:#BDBDBD;" width="20" x="92" y="48"/>
  <g>
    <linearGradient id="SVGID_6_" gradientUnits="userSpaceOnUse" x1="102" x2="102" y1="51.6667" y2="61.263">
      <stop offset="0" style="stop-color:#757575"/>
      <stop offset="1" style="stop-color:#757575;stop-opacity:0"/>
    </linearGradient>
    <rect height="20" style="fill:url(#SVGID_6_);" width="20" x="92" y="48"/>
    <linearGradient id="SVGID_7_" gradientTransform="matrix(-1 0 0 -1 348 164)" gradientUnits="userSpaceOnUse" x1="246" x2="246" y1="63.6667" y2="76.1844">
      <stop offset="0" style="stop-color:#757575"/>
      <stop offset="1" style="stop-color:#757575;stop-opacity:0"/>
    </linearGradient>
    <polygon points="92,84 112,84 112,104 92,104 " style="fill:url(#SVGID_7_);"/>
  </g>
  <g style="opacity:0.2;">
    <polygon points="100.67,48 97.67,48 97.67,104 100.67,104 100.67,48 " style="fill:#424242;"/>
  </g>
  <g style="opacity:0.2;">
    <polygon points="106.33,48 103.33,48 103.33,108.75 106.33,108.75 106.33,48 " style="fill:#424242;"/>
  </g>
  <g style="opacity:0.2;">
    <polygon points="95,48 92,48 92,104 95,104 95,48 " style="fill:#424242;"/>
  </g>
  <g style="opacity:0.2;">
    <polygon points="112,48 109,48 109,104 112,104 112,48 " style="fill:#424242;"/>
  </g>
  <g>
    <linearGradient id="SVGID_8_" gradientUnits="userSpaceOnUse" x1="102" x2="102" y1="48.1667" y2="38.8318">
      <stop offset="0" style="stop-color:#BDBDBD"/>
      <stop offset="0.4136" style="stop-color:#A2A2A2"/>
      <stop offset="0.9957" style="stop-color:#757575"/>
    </linearGradient>
    <path d="M88,40v4v1c0,3.87,3.13,7,7,7h14c3.87,0,7-3.13,7-7v-1v-4H88z" style="fill:url(#SVGID_8_);"/>
    <g style="opacity:0.2;">
      <path d="M113,43v1v1c0,2.21-1.79,4-4,4H95c-2.21,0-4-1.79-4-4v-1v-1H113 M116,40H88v4v1c0,3.87,3.13,7,7,7 h14c3.87,0,7-3.13,7-7v-1V40L116,40z" style="fill:#424242;"/>
    </g>
  </g>
  <g>
    <linearGradient id="SVGID_9_" gradientTransform="matrix(-1 0 0 -1 424 204)" gradientUnits="userSpaceOnUse" x1="322" x2="322" y1="101.3333" y2="93.3247">
      <stop offset="0" style="stop-color:#BDBDBD"/>
      <stop offset="0.4136" style="stop-color:#A2A2A2"/>
      <stop offset="0.9957" style="stop-color:#757575"/>
    </linearGradient>
    <path d="M116,112v-4v-1c0-3.87-3.13-7-7-7H95c-3.87,0-7,3.13-7,7v1v4H116z" style="fill:url(#SVGID_9_);"/>
    <g style="opacity:0.2;">
      <path d="M109,103c2.21,0,4,1.79,4,4v1v1H91v-1v-1c0-2.21,1.79-4,4-4H109 M109,100H95c-3.87,0-7,3.13-7,7v1 v4h28v-4v-1C116,103.13,112.87,100,109,100L109,100z" style="fill:#424242;"/>
    </g>
  </g>
  <radialGradient id="SVGID_10_" cx="63.6667" cy="7.3333" gradientTransform="matrix(-7.587464e-04 1 -1.4754 -1.119424e-03 74.5343 -56.3251)" gradientUnits="userSpaceOnUse" r="53.2074">
    <stop offset="0" style="stop-color:#E0E0E0"/>
    <stop offset="0.3844" style="stop-color:#DEDEDE"/>
    <stop offset="0.5865" style="stop-color:#D6D6D6"/>
    <stop offset="0.746" style="stop-color:#C8C8C8"/>
    <stop offset="0.8826" style="stop-color:#B5B5B5"/>
    <stop offset="1" style="stop-color:#9E9E9E"/>
  </radialGradient>
  <path d="M56.42,5.79L6.21,30.89C4.86,31.57,4,32.96,4,34.47V40c0,2.21,1.79,4,4,4h112 c2.21,0,4-1.79,4-4v-5.53c0-1.52-0.86-2.9-2.21-3.58L71.58,5.79C69.22,4.61,66.63,4,64,4h0C61.37,4,58.78,4.61,56.42,5.79z" style="fill:url(#SVGID_10_);"/>
  <radialGradient id="SVGID_11_" cx="63.8788" cy="14.5" gradientTransform="matrix(4.499940e-11 1 -1.8893 8.501782e-11 91.2738 -49.3788)" gradientUnits="userSpaceOnUse" r="37.7642">
    <stop offset="0" style="stop-color:#E0E0E0"/>
    <stop offset="0.4495" style="stop-color:#C5C5C5"/>
    <stop offset="1" style="stop-color:#9E9E9E"/>
  </radialGradient>
  <path d="M106.53,32.21L68,12.94 C66.76,12.32,65.39,12,64,12h0c-1.39,0-2.76,0.32-4,0.94L21.47,32.21C19.58,33.15,20.25,36,22.36,36h83.28 C107.75,36,108.42,33.15,106.53,32.21z" style="fill:url(#SVGID_11_);stroke:#AFAFAF;stroke-width:2;stroke-miterlimit:10;"/>
  <g style="opacity:0.2;">
    <path d="M64,7c2.15,0,4.31,0.51,6.24,1.47l50.21,25.11c0.34,0.17,0.55,0.51,0.55,0.89V40c0,0.55-0.45,1-1,1 H8c-0.55,0-1-0.45-1-1v-5.53c0-0.38,0.21-0.72,0.55-0.89L57.76,8.47C59.69,7.51,61.85,7,64,7 M64,4c-2.63,0-5.22,0.61-7.58,1.79 L6.21,30.89C4.86,31.57,4,32.96,4,34.47V40c0,2.21,1.79,4,4,4h112c2.21,0,4-1.79,4-4v-5.53c0-1.52-0.86-2.9-2.21-3.58L71.58,5.79 C69.22,4.61,66.63,4,64,4L64,4z" style="fill:#424242;"/>
  </g>
  <linearGradient id="SVGID_12_" gradientUnits="userSpaceOnUse" x1="64" x2="64" y1="108.5" y2="117.8467">
    <stop offset="0" style="stop-color:#E0E0E0"/>
    <stop offset="0.4495" style="stop-color:#C5C5C5"/>
    <stop offset="1" style="stop-color:#9E9E9E"/>
  </linearGradient>
  <path d="M120,120H8v-8c0-2.21,1.79-4,4-4h104c2.21,0,4,1.79,4,4V120z" style="fill:url(#SVGID_12_);"/>
  <linearGradient id="SVGID_13_" gradientUnits="userSpaceOnUse" x1="64" x2="64" y1="115.6667" y2="122.3375">
    <stop offset="0" style="stop-color:#E0E0E0"/>
    <stop offset="0.4495" style="stop-color:#C5C5C5"/>
    <stop offset="1" style="stop-color:#9E9E9E"/>
  </linearGradient>
  <path d="M124,124H4v-4c0-2.21,1.79-4,4-4h112c2.21,0,4,1.79,4,4V124z" style="fill:url(#SVGID_13_);"/>
  <g style="opacity:0.2;">
    <path d="M116,111c0.55,0,1,0.45,1,1v4v3h3c0.55,0,1,0.45,1,1v1H7v-1c0-0.55,0.45-1,1-1h3v-3v-4 c0-0.55,0.45-1,1-1H116 M116,108H12c-2.21,0-4,1.79-4,4v4c-2.21,0-4,1.79-4,4v4h120v-4c0-2.21-1.79-4-4-4v-4 C120,109.79,118.21,108,116,108L116,108z" style="fill:#424242;"/>
  </g>
  <g>
    <path d="M55.11,88h17.78C73.5,88,74,87.55,74,87v-0.54c0-0.65-0.45-1.22-1.12-1.45l-8.66-1.88 c-0.25-0.08-0.53-0.08-0.78,0L55.1,85c-0.66,0.23-1.1,0.8-1.1,1.44V87C54,87.55,54.5,88,55.11,88z" style="fill:#757575;"/>
    <g>
      <rect height="20" style="fill:#4FC3F7;" width="16" x="56" y="88"/>
      <g style="opacity:0.2;">
        <rect height="20" style="fill:#424242;" width="2" x="56" y="88"/>
        <rect height="20" style="fill:#424242;" width="2" x="70" y="88"/>
      </g>
    </g>
  </g>
  <g>
    <path d="M38.58,71.42V57.07h5.03c1.74,0,3.06,0.33,3.96,1c0.9,0.67,1.35,1.64,1.35,2.93 c0,0.7-0.18,1.32-0.54,1.86c-0.36,0.54-0.86,0.93-1.51,1.18c0.74,0.18,1.32,0.56,1.74,1.11c0.42,0.56,0.64,1.24,0.64,2.05 c0,1.38-0.44,2.42-1.32,3.13c-0.88,0.71-2.14,1.07-3.76,1.08H38.58z M41.53,63.08h2.19c1.49-0.03,2.24-0.62,2.24-1.78 c0-0.65-0.19-1.12-0.57-1.4c-0.38-0.29-0.97-0.43-1.79-0.43h-2.07V63.08z M41.53,65.17v3.87h2.53c0.7,0,1.24-0.17,1.63-0.5 c0.39-0.33,0.59-0.79,0.59-1.38c0-1.31-0.68-1.98-2.04-2H41.53z" style="fill:#BDBDBD;"/>
    <path d="M59.28,68.46H54.1l-0.99,2.96h-3.14l5.34-14.35h2.74l5.37,14.35h-3.14L59.28,68.46z M54.89,66.07 h3.59l-1.8-5.37L54.89,66.07z" style="fill:#BDBDBD;"/>
    <path d="M76.42,71.42h-2.96l-5.75-9.44v9.44h-2.96V57.07h2.96l5.76,9.46v-9.46h2.95V71.42z" style="fill:#BDBDBD;"/>
    <path d="M83.5,65.66l-1.54,1.65v4.1h-2.96V57.07h2.96v6.5l1.3-1.78l3.66-4.72h3.64l-5.09,6.38l5.24,7.97 h-3.52L83.5,65.66z" style="fill:#BDBDBD;"/>
  </g>
</svg>
